X:7120
T:Hoaschlöglgfang
C:Trad.
N:von Konrad Mautner
I:160
M:3/4
L:1/8
K:G
D2 | [D2G2] [GB] [GB] [Bd][Ac] | [F2A2] z D D D | [D2F2] [F2A2] [A2d2] | [G2B2] z2 [B2d2] | [B2d2] [F2A2] z [Bd] | [B2d2] [G2B2] z [Ac] |
[A2c2] [F2A2] z [Bd] | [B2d2] [G2B2] z D | [D2G2] [G2B2] [Bd][Ac] | [F2A2] z2 D | [D2F2]>[F2A2] [B2d2] | [G4B4] ||


